X: 3919
T: Blackbird - Joe Derrane, The
R: hornpipe
M: 4/4
K: Dmajor
fe|:dcAF GF D2|(3EFG AB =cBcA|d2 AF GBAG|(3FGF D2 D2 (3ABc|
dcAF GF D2|(3EFG AB =c3 B|dDFA GBAG|1 F2 D2 D2 (3gfe:|2 F2 D2 D2 z A||
|:defg agfa|gfga gfd2|defg abag|(3fgf d2 d2 (3efg|
agfa ~g2 fe|dcde fd (3efe|dcAF GBAG|1 (3FGF D2 D2:|2 F2 D2 D2 z A||
DEFG AB (3 =cBA|dcde dcAF|D2 (3EFG ABAG|(3FGF D2 D2 z A|
DEFG AB=cA|dcde fd (3efe|dcAF GBAG|1 F2 D2 D2 z A:|2 (3FGF D2 D2||

